!!!SOCIAL_FUNCTION:	songs of the grass dance
!!!PDT:	1918

Specific Region: Dakotas, Minnesota, Montana, Nebraska
!!!REG: Dakotas and Montana
!!!LING_GROUP: Siouan
!!!LANG: Tone
!!!OTL@ENG: Song of the Grass Dance (a)
!!!ONM: No. 196
**kern
*Imale
*clefF4
*k[f#c#]
*M3/4
*MM116
4f#
4g#
8.f#
16f#
=2
2.f#
=3||
*M2/4
16B
8.B
4B
=4||
*M3/4
4f#
4f#
12B
12B
12B
=5||
*M2/4
2B
=6
16d
8.B
4B
=7
4A
8F#
8F#
=8||
*M3/4
2F#
8B
8B
=9||
*M2/4
4B
4A
=10
8B
8B
4A
=11
4F#
4A
=12
4F#
8.F#
16F#
=13||
*M3/4
2.F#
=14||
*M2/4
2F#
=15||
*M3/4
8d
8d
4d
8.B
16B
=16
2.B
=17||
*M2/4
4A
8F#
8F#
=18||
*M3/4
2F#
8B
8B
=19||
*M2/4
4B
4A
=20
8B
8B
4A
=21
4F#
4A
=22
4F#
8.F#
16F#
=23||
*M3/4
2.F#
=24||
*M2/4
2F#
=25
4d
4d
=26
4B
4B
=27||
*M3/4
2.B
=28||
*M2/4
4A
16F#
[8.F#
=29
4F#]
8B
8B
=30
4B
16A
8.A
=31
8B
8B
4A
=32
4F#
8A
8A
=33
4F#
12F#
12F#
12F#
=34||
*M3/4
2.F#
=35
2.F#
==
*-
!!!CNT: Native American -- Sioux
!!!MRD: 1911/07//-1914///
!!!OCL: Frances Densmore
!!!YOR1: Teton Sioux Music, Bulletin 61,
!!!YOR2: Bureau of American Ethnology, Smithsonian Institution
!!!PPR: Government Printing Office
!!!PPP: Washington, D.C.
!!!PDT: 1918///
!!!ENC: Craig Stuart Sapp
!!!END: 2002/03/25/
!!!EEV: 2002/03/31/
!!!AGN: Dance Song/Song of the Grass Dance
!!!MPN@@SIO: Hanghe'-pikte
!!!MPN@ENG: Kills-at-Night
!!!TXO: Teton Sioux
!!!MLC: Standing Rock Reservation, South Dakota, United States of America
!!!ARL: 45.9/-100.7#
!!!catalog: Catalogue No. 596
!!!PPG: 474
!!!EFL: 201/245
!!!VTS: 456412697
